svg/color/ioc.svg

<?xml version="1.0" encoding="UTF-8" ?>
<!DOCTYPE svg PUBLIC "-//W3C//DTD SVG 1.1//EN" "http://www.w3.org/Graphics/SVG/1.1/DTD/svg11.dtd">
<svg width="250pt" height="250pt" viewBox="0 0 250 250" version="1.1" xmlns="http://www.w3.org/2000/svg">
<g id="#ffffffff">
<path fill="#ffffff" opacity="1.00" d=" M 0.00 0.00 L 121.31 0.00 C 94.56 0.89 68.13 10.43 47.22 27.19 C 18.67 49.64 1.00 85.03 0.00 121.32 L 0.00 0.00 Z" />
<path fill="#ffffff" opacity="1.00" d=" M 129.53 0.00 L 250.00 0.00 L 250.00 121.52 C 249.11 84.67 230.90 48.73 201.64 26.29 C 181.15 10.22 155.51 1.12 129.53 0.00 Z" />
<path fill="#ffffff" opacity="1.00" d=" M 219.16 207.15 C 238.16 185.64 249.12 157.36 250.00 128.71 L 250.00 250.00 L 128.68 250.00 C 163.04 249.02 196.72 233.24 219.16 207.15 Z" />
<path fill="#ffffff" opacity="1.00" d=" M 0.00 129.45 C 1.25 163.53 16.94 196.87 42.84 219.14 C 63.90 237.79 91.47 248.55 119.50 250.00 L 0.00 250.00 L 0.00 129.45 Z" />
</g>
<g id="#040b2dff">
<path fill="#040b2d" opacity="1.00" d=" M 121.31 0.00 L 129.53 0.00 C 155.51 1.12 181.15 10.22 201.64 26.29 C 230.90 48.73 249.11 84.67 250.00 121.52 L 250.00 128.71 C 249.12 157.36 238.16 185.64 219.16 207.15 C 196.72 233.24 163.04 249.02 128.68 250.00 L 119.50 250.00 C 91.47 248.55 63.90 237.79 42.84 219.14 C 16.94 196.87 1.25 163.53 0.00 129.45 L 0.00 121.32 C 1.00 85.03 18.67 49.64 47.22 27.19 C 68.13 10.43 94.56 0.89 121.31 0.00 M 103.55 8.51 C 103.60 16.57 103.54 24.63 103.58 32.68 C 117.33 29.58 131.80 29.41 145.56 32.54 C 145.64 24.52 145.55 16.51 145.61 8.49 C 131.77 5.89 117.38 5.85 103.55 8.51 M 40.07 42.00 C 19.25 63.13 6.69 92.30 6.23 122.01 C 5.49 145.32 11.99 168.77 24.53 188.42 C 39.03 211.48 61.78 229.04 87.59 237.63 C 87.75 229.13 87.66 220.63 87.64 212.14 C 63.10 201.64 43.43 180.38 35.10 155.00 C 27.15 131.34 29.05 104.55 40.40 82.30 C 50.31 62.53 67.41 46.64 87.67 37.83 C 87.61 29.35 87.79 20.86 87.57 12.39 C 69.73 18.42 53.26 28.53 40.07 42.00 M 161.53 12.40 C 161.43 20.75 161.56 29.09 161.46 37.44 C 188.41 48.71 209.61 72.83 216.75 101.21 C 222.91 124.92 219.52 151.00 207.19 172.20 C 196.92 190.21 180.52 204.48 161.47 212.57 C 161.55 220.92 161.43 229.27 161.54 237.63 C 194.71 226.81 222.45 200.66 234.97 168.06 C 248.09 134.89 245.06 95.84 226.83 65.16 C 212.42 40.41 188.73 21.34 161.53 12.40 M 103.52 65.44 C 103.62 124.13 103.57 182.82 103.55 241.51 C 117.39 244.14 131.76 244.14 145.61 241.53 C 145.58 182.83 145.58 124.12 145.61 65.42 C 131.78 62.77 117.34 62.73 103.52 65.44 Z" />
</g>
<g id="#7fc7eeff">
<path fill="#7fc7ee" opacity="1.00" d=" M 103.55 8.51 C 117.38 5.85 131.77 5.89 145.61 8.49 C 145.55 16.51 145.64 24.52 145.56 32.54 C 131.80 29.41 117.33 29.58 103.58 32.68 C 103.54 24.63 103.60 16.57 103.55 8.51 Z" />
<path fill="#7fc7ee" opacity="1.00" d=" M 103.52 65.44 C 117.34 62.73 131.78 62.77 145.61 65.42 C 145.58 124.12 145.58 182.83 145.61 241.53 C 131.76 244.14 117.39 244.14 103.55 241.51 C 103.57 182.82 103.62 124.13 103.52 65.44 Z" />
</g>
<g id="#2da2deff">
<path fill="#2da2de" opacity="1.00" d=" M 40.07 42.00 C 53.26 28.53 69.73 18.42 87.57 12.39 C 87.79 20.86 87.61 29.35 87.67 37.83 C 67.41 46.64 50.31 62.53 40.40 82.30 C 29.05 104.55 27.15 131.34 35.10 155.00 C 43.43 180.38 63.10 201.64 87.64 212.14 C 87.66 220.63 87.75 229.13 87.59 237.63 C 61.78 229.04 39.03 211.48 24.53 188.42 C 11.99 168.77 5.49 145.32 6.23 122.01 C 6.69 92.30 19.25 63.13 40.07 42.00 Z" />
<path fill="#2da2de" opacity="1.00" d=" M 161.53 12.40 C 188.73 21.34 212.42 40.41 226.83 65.16 C 245.06 95.84 248.09 134.89 234.97 168.06 C 222.45 200.66 194.71 226.81 161.54 237.63 C 161.43 229.27 161.55 220.92 161.47 212.57 C 180.52 204.48 196.92 190.21 207.19 172.20 C 219.52 151.00 222.91 124.92 216.75 101.21 C 209.61 72.83 188.41 48.71 161.46 37.44 C 161.56 29.09 161.43 20.75 161.53 12.40 Z" />
</g>
</svg>

<?xml version="1.0" encoding="utf-8"?>
<!-- Generator: Adobe Illustrator 26.0.3, SVG Export Plug-In . SVG Version: 6.00 Build 0)  -->
<svg version="1.1" id="Layer_1" xmlns="http://www.w3.org/2000/svg" xmlns:xlink="http://www.w3.org/1999/xlink" x="0px" y="0px"
	 viewBox="0 0 250 250" style="enable-background:new 0 0 250 250;" xml:space="preserve">
<style type="text/css">
	.st0{fill:#040B2D;}
	.st1{fill:#7FC7EE;}
	.st2{fill:#2DA2DE;}
</style>
<g id="_x23_040b2dff">
	<path class="st0" d="M121.3,0h8.2c26,1.1,51.6,10.2,72.1,26.3c29.3,22.4,47.5,58.4,48.4,95.2v7.2c-0.9,28.6-11.8,56.9-30.8,78.4
		C196.7,233.2,163,249,128.7,250h-9.2c-28-1.4-55.6-12.2-76.7-30.9C16.9,196.9,1.2,163.5,0,129.4v-8.1C1,85,18.7,49.6,47.2,27.2
		C68.1,10.4,94.6,0.9,121.3,0 M103.6,8.5c0,8.1,0,16.1,0,24.2c13.8-3.1,28.2-3.3,42-0.1c0.1-8,0-16,0.1-24.1
		C131.8,5.9,117.4,5.8,103.6,8.5 M40.1,42C19.2,63.1,6.7,92.3,6.2,122c-0.7,23.3,5.8,46.8,18.3,66.4C39,211.5,61.8,229,87.6,237.6
		c0.2-8.5,0.1-17,0.1-25.5c-24.5-10.5-44.2-31.8-52.5-57.1c-7.9-23.7-6-50.4,5.3-72.7c9.9-19.8,27-35.7,47.3-44.5
		c-0.1-8.5,0.1-17-0.1-25.4C69.7,18.4,53.3,28.5,40.1,42 M161.5,12.4c-0.1,8.4,0,16.7-0.1,25c26.9,11.3,48.1,35.4,55.3,63.8
		c6.2,23.7,2.8,49.8-9.6,71c-10.3,18-26.7,32.3-45.7,40.4c0.1,8.3,0,16.7,0.1,25.1c33.2-10.8,60.9-37,73.4-69.6
		c13.1-33.2,10.1-72.2-8.1-102.9C212.4,40.4,188.7,21.3,161.5,12.4 M103.5,65.4c0.1,58.7,0.1,117.4,0,176.1
		c13.8,2.6,28.2,2.6,42.1,0c0-58.7,0-117.4,0-176.1C131.8,62.8,117.3,62.7,103.5,65.4z"/>
</g>
<g id="_x23_7fc7eeff">
	<path class="st1" d="M103.6,8.5c13.8-2.7,28.2-2.6,42.1,0c-0.1,8,0,16-0.1,24.1c-13.8-3.1-28.2-3-42,0.1
		C103.5,24.6,103.6,16.6,103.6,8.5z"/>
	<path class="st1" d="M103.5,65.4c13.8-2.7,28.3-2.7,42.1,0c0,58.7,0,117.4,0,176.1c-13.9,2.6-28.2,2.6-42.1,0
		C103.6,182.8,103.6,124.1,103.5,65.4z"/>
</g>
<g id="_x23_2da2deff">
	<path class="st2" d="M40.1,42c13.2-13.5,29.7-23.6,47.5-29.6c0.2,8.5,0,17,0.1,25.4c-20.3,8.8-37.4,24.7-47.3,44.5
		c-11.4,22.2-13.3,49-5.3,72.7c8.3,25.4,28,46.6,52.5,57.1c0,8.5,0.1,17-0.1,25.5C61.8,229,39,211.5,24.5,188.4
		C12,168.8,5.5,145.3,6.2,122C6.7,92.3,19.2,63.1,40.1,42z"/>
	<path class="st2" d="M161.5,12.4c27.2,8.9,50.9,28,65.3,52.8c18.2,30.7,21.3,69.7,8.1,102.9c-12.5,32.6-40.3,58.8-73.4,69.6
		c-0.1-8.4,0-16.7-0.1-25.1c19.1-8.1,35.4-22.4,45.7-40.4c12.3-21.2,15.7-47.3,9.6-71c-7.1-28.4-28.3-52.5-55.3-63.8
		C161.6,29.1,161.4,20.8,161.5,12.4z"/>
</g>
</svg>
